X: 21253
T: Keep It Up
R: reel
M: 4/4
K: Bminor
dEBE eEBE|dEBE FDD/D/D|dEBE GBeB|1 cAdA FDDc:|2 cAdA FDD/D/D||
GEBE GEEF|GEBE FDDF|GEBE GEBe|cAdA FDDF|
GEBE GBB/B/B|GEBE FDDF|EBGB FBEG|FcdA FDDc||
gAeA aAeA|gAeA BGG/G/G|gAeA ceae|1 fdgd BGGf:|2 fdgd BGG/G/G||
cAeA cAAB|cAeA BGGB|cAeA cAea|fdgd BGGB|
cAeA cee/e/e|cAeA BGGB|Aece BeAc|Bfgd BGGf||
aBfB bBfB|aBfB cAA/A/A|aBfB dfbf|1 geae cAAg:|2 geae cAA/A/A||
dBfB dBBc|dBfB cAAc|dBfB dBfb|beae cAAc|
dBfB dff/f/f|dBfB cAAc|Bfdf cfBd|cbae cAAe||

